X: 20184
T: Jock Tamson's
R: reel
M: 4/4
K: Dmajor
|:Ad|fgfe dedB|A2F2 F2FE|DFAd gfed|cdef e2Ad|
fgfe dedB|A2F2 F2A2|FAdf egce|d2d2 d2:|
|:ef|gfeg fedf|edcB A2ef|gfeg fedf|e2a2 a2ef|
gfeg fedf|edce dcBA|Bdce dfeg|f2d2 d2:|

